X: 2034
T: Chickadee
R: reel
C: Rick Gagne
N: 1988 on whistle
N: no G or G sharp notes
M: 4/4
Q: 1/4=175
K: A
cd | "A"e2e2 e2dc | "E"BABc "A"A2ce | "D"f2f2 "A"e2dc | "E"BABc BcdB | 
"A"e2e2 e2dc | "E"BABc "A"A2ce | "D"fa2f "A"edcA | "E"BABc "A"A2 :|
cA |: "E"Be~e2 efed | "A"c2A4cA | "E"Be~e2 efed | "F#m"c2e2 "D"a2fa | 
"E"eB~B2 efed | "A"c2A3 Bce | "D"fa2f "A"edcA |1 "E"BABc "A"ABc/B/A :|\
[2 "E"BABc "A"A2 ||
